!!!!SEGMENT: pl-kk--kk-i-111--009-002_anonim--deo-gratias-sabato-2dum.krn
!!!cenid: 18xx:2577
!!!COM: Anonim
!!!COM-rismid: pe30004985
!!!CDT:
!!!CNT:
!!!GTL: Deo gratias
!!!OTL: Sabato 2dum
!!!OMV: 002
!!!PDT: 1824
!!!AGN: Sacred
!!!SMS-siglum: PL-Kk
!!!SMS-shelfmark: Kk.I.111
!!!SMS-shelfwork: 009-002 G
!!!SMS-variant:
!!!SMS-altvar:
!!!NIFC-rismid: 1001157692
!!!URL-scan: http://repozytorium.nifc.pl/skany/pl-kk-nut--i-111
!!!ONB-nifc: UWAGA: A, T1, T2. Podział na poszególne Deo gratias. A: skan 0003 (m.in)
!!!AIN: 1 alto 2 tenor
!!!key:
**kern	**text	**kern	**text	**kern	**text
*part3	*part3	*part2	*part2	*part1	*part1
*staff3	*staff3	*staff2	*staff2	*staff1	*staff1
*Itenor	*	*Itenor	*	*Ialto	*
*I"Tenore Vagante.	*	*I"Tenore Chorale.	*	*I"Alto.	*
*I'T 2	*	*I'T 1	*	*I'A	*
*clefC4	*	*clefC4	*	*clefC3	*
*k[b-]	*	*k[]	*	*k[]	*
*d:	*	*d:	*	*d:	*
*M2/1	*	*M2/1	*	*M2/1	*
*met(c|)	*	*met(c|)	*	*met(c|)	*
*	*	*	*	*all\right	*
*2\right	*	*2\right	*	*2\right	*
=1-	=1-	=1-	=1-	=1-	=1-
!LO:TX:t=P:problem=kreska pseudotaktowa	!	!	!	!	!
!	!	!LO:TX:t=P:problem=kreska pseudotaktowa	!	!	!
!	!	!	!	!LO:TX:t=P:problem=Nie wiem czemu ale utwór brzmi w sposób dysonansowy	!
!	!	!	!	!LO:TX:t=P:problem=kreska pseudotaktowa	!
1A	De-	1D	De-	1d	De-
!	!	!	!	!LO:TX:t=P:problem=2\right&colon; global	!
1.B-X	.	0F	-o	2e\	-o
!	!	!	!	!LO:TX:t=P:problem=kreska pseudotaktowa	!
.	.	.	.	2f\	.
=2-	=2-	=2-	=2-	=2	=2-
!	!	!LO:TX:t=P:problem=kreska pseudotaktowa	!	!	!
.	.	.	.	2e\	gra-
!	!	!	!	!LO:TX:t=P:problem=kreska pseudotaktowa	!
4A\	-o	.	.	2d\	.
!LO:TX:t=P:problem=kreska pseudotaktowa	!	!	!	!	!
4B-\	.	.	.	.	.
!LO:TX:t=P:problem=2\right&colon; global	!	!LO:TX:t=P:problem=kreska pseudotaktowa	!	!	!
2c\	.	1G	.	2.f\	.
!LO:TX:t=P:problem=kreska pseudotaktowa	!	!	!	!	!
2d\	.	.	.	.	.
!	!	!	!	!LO:TX:t=P:problem=kreska pseudotaktowa	!
.	.	.	.	4e\	-ti-
=3	=3-	=3	=3-	=3	=3-
!LO:TX:t=P:problem=kreska pseudotaktowa	!	!LO:TX:t=P:problem=kreska pseudotaktowa	!	!	!
1c	.	1A	.	2d\	-as
.	.	.	.	1g	De-
!	!	!LO:TX:t=P:problem=kreska pseudotaktowa	!	!	!
2B-\	gra-	1G	.	.	.
!LO:TX:t=P:problem=kreska pseudotaktowa	!	!	!	!LO:TX:t=P:problem=kreska pseudotaktowa	!
2d\	.	.	.	2g\	-o
=4	=4-	=4	=4-	=4	=4-
!	!	!LO:TX:t=P:problem=kreska pseudotaktowa	!	!LO:TX:t=P:problem=kreska pseudotaktowa	!
2.c\	.	1E	.	1f	gra-
!LO:TX:t=P:problem=kreska pseudotaktowa	!	!	!	!	!
4c\	-ti-	.	.	.	.
!LO:TX:t=P:problem=kreska pseudotaktowa	!	!LO:TX:t=P:problem=kreska pseudotaktowa	!	!LO:TX:t=P:problem=kreska pseudotaktowa	!
1c	-as	1F	.	1g	.
=5	=5-	=5	=5-	=5	=5-
!	!	!LO:TX:t=P:problem=kreska pseudotaktowa	!	!	!
1.c	De-	1E	.	2a\	.
!	!	!	!	!LO:TX:t=P:problem=kreska pseudotaktowa	!
.	.	.	.	2g\	.
!	!	!LO:TX:t=P:problem=kreska pseudotaktowa	!	!	!
.	.	1D	.	2e\	.
!LO:TX:t=P:problem=kreska pseudotaktowa	!	!	!	!LO:TX:t=P:problem=kreska pseudotaktowa	!
2B-\	-o	.	.	2d\	.
=6	=6-	=6	=6-	=6	=6-
!	!	!LO:TX:t=P:problem=kreska pseudotaktowa	!	!	!
2c\	gra-	1F	.	2.d\	.
!LO:TX:t=P:problem=kreska pseudotaktowa	!	!	!	!	!
2d\	.	.	.	.	.
!	!	!	!	!LO:TX:t=P:problem=kreska pseudotaktowa	!
.	.	.	.	4d\	-ti-
!	!	!LO:TX:t=P:problem=kreska pseudotaktowa	!	!	!
2A\	.	1D	.	2e\	-as
!LO:TX:t=P:problem=kreska pseudotaktowa	!	!	!	!	!
2B-\	.	.	.	1f\	De-
=7	=7-	=7	=7-	=7-	=7-
!	!	!LO:TX:t=P:problem=kreska pseudotaktowa	!	!	!
2G\	.	1C	.	.	.
!LO:TX:t=P:problem=kreska pseudotaktowa	!	!	!	!LO:TX:t=P:problem=kreska pseudotaktowa	!
2A\	-ti-	.	.	2f\	-o
!	!	!LO:TX:t=P:problem=kreska pseudotaktowa	!	!	!
2F/	-as	1D	.	2g\	.
!LO:TX:t=P:problem=kreska pseudotaktowa	!	!	!	!LO:TX:t=P:problem=kreska pseudotaktowa	!
2f\	De-	.	.	2a\	.
=8	=8-	=8	=8-	=8	=8-
!	!	!LO:TX:t=P:problem=kreska pseudotaktowa	!	!	!
2e\	.	1C	.	2f\	gra-
!LO:TX:t=P:problem=kreska pseudotaktowa	!	!	!	!LO:TX:t=P:problem=kreska pseudotaktowa	!
2c\	-o	.	.	2d\	-ti-
!	!	!LO:TX:t=P:problem=kreska pseudotaktowa	!	!	!
2d\	gra-	1D	.	2a\	-as
!LO:TX:t=P:problem=kreska pseudotaktowa	!	!	!	!	!
2B-\	.	.	.	4a\	.
!	!	!	!	!LO:TX:t=P:problem=kreska pseudotaktowa	!
.	.	.	.	4g\	De-
=9	=9-	=9	=9-	=9	=9-
!	!	!LO:TX:t=P:problem=kreska pseudotaktowa	!	!	!
2.c\	.	1F	gra-	2g\	-o
.	.	.	.	1a	.
!LO:TX:t=P:problem=kreska pseudotaktowa	!	!	!	!	!
4d\	.	.	.	.	.
!LO:LB:g=original	!	!LO:TX:t=P:problem=kreska pseudotaktowa	!	!	!
2e\	.	1E	.	.	.
!LO:TX:t=P:problem=kreska pseudotaktowa	!	!	!	!LO:TX:t=P:problem=kreska pseudotaktowa	!
2c\	-ti-	.	.	2d/	.
=10	=10-	=10	=10-	=10	=10-
!LO:TX:t=P:problem=kreska pseudotaktowa	!	!LO:TX:t=P:problem=kreska pseudotaktowa	!	!LO:TX:t=P:problem=kreska pseudotaktowa	!
1d	-as	1F	.	1d	gra-
!	!	!LO:TX:t=P:problem=kreska pseudotaktowa	!	!LO:TX:t=P:problem=kreska pseudotaktowa	!
2B-\	De-	1G	.	1e	.
!LO:TX:t=P:problem=kreska pseudotaktowa	!	!	!	!	!
2d\	.	.	.	.	.
=11	=11-	=11	=11-	=11	=11-
!LO:TX:t=P:problem=kreska pseudotaktowa	!	!LO:TX:t=P:problem=kreska pseudotaktowa	!	!LO:TX:t=P:problem=kreska pseudotaktowa	!
1c	-o	1E	.	1d	.
!	!	!LO:TX:t=P:problem=kreska pseudotaktowa	!	!	!
2A\	.	1F	.	2.c#X\	.
1A\	.	.	.	.	.
!	!	!	!	!LO:TX:t=P:problem=kreska pseudotaktowa	!
.	.	.	.	4c#\	-ti-
=12-	=12-	=12	=12-	=12	=12-
.	.	2.E/	.	2d\	-as
!LO:TX:t=P:problem=kreska pseudotaktowa	!	!	!	!	!
2A\	.	.	.	4d\	De-
!	!	!LO:TX:t=P:problem=kreska pseudotaktowa	!	!LO:TX:t=P:problem=kreska pseudotaktowa	!
.	.	4E/	-ti-	4e\	.
!	!	!LO:N:vis=2	!	!LO:TX:t=P:problem=kreska pseudotaktowa	!
0A	gra-	1%5D;	-as.	1f#X	-o
=13-	=13-	=13-	=13-	=13	=13-
!LO:TX:t=P:problem=kreska pseudotaktowa	!	!	!	!	!
.	.	.	.	1.g	gra-
1.B-X	.	.	.	.	.
!	!	!	!	!LO:TX:t=P:problem=kreska pseudotaktowa	!
.	.	.	.	2g\	-ti-
=14-	=14-	=14-	=14-	=14	=14-
.	.	.	.	0f#X;	-as
!LO:TX:t=P:problem=kreska pseudotaktowa	!	!	!	!	!
2B-\	-ti-	.	.	.	.
!LO:N:vis=0	!	!	!	!	!
1A;	-as	.	.	.	.
==	=-	==	=-	==	=-
*-	*-	*-	*-	*-	*-
!!!system-decoration: [(s1,s2,s3)]
!!!ENC: Kamil Watkowski
!!!END: 2021-08-04
